nextcloudappstore/core/static/assets/img/icons/categories/folder-white.svg

<svg width="20" height="20" fill="none" style="-webkit-print-color-adjust:exact" version="1.1" viewBox="-0 0 20 20" xmlns="http://www.w3.org/2000/svg"><g rx="0" ry="0" fill="#000"><g class="fills"><path rx="0" ry="0" d="m8.333 3.333h-5c-0.925 0-1.666 0.742-1.666 1.667v10c0 0.92 0.746 1.667 1.666 1.667h13.334c0.92 0 1.666-0.747 1.666-1.667v-8.333c0-0.925-0.75-1.667-1.666-1.667h-6.667l-1.667-1.667z" fill="#fff"/></g></g></svg>

<svg xmlns:xlink="http://www.w3.org/1999/xlink" width="20" xmlns="http://www.w3.org/2000/svg" height="20" id="screenshot-db15cf86-6f9e-8025-8002-bbab9ed6fdf7" viewBox="-0 0 20 20" style="-webkit-print-color-adjust: exact;" fill="none" version="1.1"><g id="shape-db15cf86-6f9e-8025-8002-bbab9ed6fdf7" rx="0" ry="0" style="fill: rgb(0, 0, 0);"><g id="shape-db15cf86-6f9e-8025-8002-bbab9ed6fdf9"><g class="fills" id="fills-db15cf86-6f9e-8025-8002-bbab9ed6fdf9"><path rx="0" ry="0" d="M8.333,3.333L3.333,3.333C2.408,3.333,1.667,4.075,1.667,5.000L1.667,15.000C1.667,15.920,2.413,16.667,3.333,16.667L16.667,16.667C17.587,16.667,18.333,15.920,18.333,15.000L18.333,6.667C18.333,5.742,17.583,5.000,16.667,5.000L10.000,5.000L8.333,3.333ZZ" style="fill: rgb(255, 255, 255); fill-opacity: 1;"/></g></g></g></svg>
